svgs/gva.svg

<svg xmlns="http://www.w3.org/2000/svg" viewBox="0 0 192 192"><path d="M68.15 170.428c-1.148-1.064-2.215-1.868-2.371-1.784-.156.083-.185-.007-.064-.201s-7.537-8.138-17.017-17.654l-17.237-17.302 3.51-3.577 3.51-3.576 10.992 10.918c13.903 13.811 19.49 21.533 23.211 32.081 1.032 2.923 1.007 3.032-.688 3.032-.967 0-2.697-.872-3.846-1.937Zm-21.704-45.787-5.36-5.681-8.912 4.436-8.913 4.437-.818-1.797c-.735-1.612-.542-1.896 1.881-2.772l2.699-.976V87.561l-5.354-.235c-4.865-.213-5.378-.398-5.608-2.019-.247-1.739-.066-1.785 6.941-1.785h7.194v18.244c0 10.035.171 18.245.379 18.245.209 0 2.359-.971 4.778-2.157 3.234-1.587 4.265-2.479 3.895-3.372-2.301-5.545-2.892-10.308-3.278-26.399l-.413-17.253h-8.942c-7.441 0-9.022-.212-9.425-1.261-.266-.694-.283-1.587-.038-1.983.249-.404 9.485-.722 20.931-.722h20.485l.478-1.785c.752-2.805.611-3.117-1.155-2.556-2.597.824-6.799-.292-9.427-2.504l-2.403-2.022-2.403 2.022c-4.327 3.641-10.812 3.483-14.941-.365l-1.738-1.619-2.419 2.035c-2.409 2.027-5.469 2.732-5.469 1.26 0-.425 1.269-1.928 2.82-3.34 2.064-1.878 2.707-3.019 2.397-4.254-.555-2.212 1.224-4.574 3.164-4.2 1.186.229 1.553.999 1.615 3.395.174 6.645 8.631 9.092 13.45 3.893 1.416-1.528 1.707-2.393 1.153-3.428-.984-1.839.782-4.254 2.82-3.857 1.077.21 1.563 1.004 1.631 2.665.142 3.493 1.02 5.063 3.569 6.381l2.283 1.18V54.84c0-5.555 2.065-10.787 5.244-13.287 1.796-1.413 1.876-1.775 1.129-5.108-.442-1.973-.573-5.271-.291-7.329l.513-3.742-3.373 1.896c-1.856 1.043-5.157 4.165-7.337 6.939-2.18 2.774-5.499 5.991-7.375 7.149-3.043 1.877-3.467 2.51-3.916 5.841-.531 3.929-1.142 4.848-2.62 3.935-.587-.363-.745-2.205-.46-5.355.428-4.72.495-4.832 3.936-6.658 3.333-1.768 4.565-2.975 10.29-10.088l2.483-3.083-1.946-2.262c-1.718-1.997-1.808-2.4-.772-3.436s1.438-.879 3.429 1.341l2.256 2.515 3.471-1.229c2.93-1.038 8.039-1.694 8.028-1.031-.002.109-.894 1.954-1.983 4.1-2.33 4.592-2.462 7.624-.522 11.944l1.416 3.154-2.355 1.605c-4.125 2.811-5.572 5.528-5.929 11.133-.28 4.404-.137 5.148.993 5.148 2.121 0 5.256-3.902 4.752-5.914-.511-2.035 1.284-3.867 3.395-3.464 1.832.349 2.299 3.565.766 5.278-.651.728-2.506 4.526-4.121 8.44-2.916 7.065-2.935 7.184-2.599 16.261.293 7.898.644 9.819 2.575 14.091 3.431 7.594 4.016 7.639 5.565.434 2.528-11.755 2.242-11.329 7.615-11.329 4.463 0 4.706.102 5.166 2.181.551 2.486 3.363 13.377 3.995 15.468.334 1.107-.064 1.388-1.959 1.388-1.862 0-2.433-.387-2.632-1.784-.221-1.556-.79-1.816-4.422-2.025-3.839-.221-4.229-.08-4.938 1.785-.423 1.113-1.388 2.024-2.144 2.024-.999 0-.466.926 1.954 3.392l3.328 3.391-10.907 10.887c-6 5.988-11.128 10.887-11.397 10.887-.268 0-2.9-2.557-5.848-5.682Zm14.863-7.605 8.478-8.527-3.166-3.371-3.166-3.372H50.027V82.729h3.966v15.864h3.655c3.172 0 3.578-.183 3.074-1.388-2.577-6.161-3.556-11.256-3.556-18.513V70.83H38.71l.44 16.46c.458 17.1 1.137 21.329 4.467 27.842 1.685 3.296 7.64 10.432 8.706 10.432.279 0 4.323-3.838 8.986-8.528Zm18.063-23.797c-.011-3.461-1.685-7.337-3.168-7.337-1.071 0-1.753.866-2.338 2.974-1.439 5.183-1.209 5.751 2.338 5.751 2.495 0 3.172-.297 3.168-1.388Zm37.383 7.964c-5.468-2.694-6.475-11.668-1.831-16.312 4.319-4.319 12.246-3.12 14.788 2.237 4.538 9.563-3.778 18.597-12.957 14.075Zm8.269-4.557c1.227-1.227 1.947-2.853 1.947-4.398 0-2.808-3.027-6.346-5.429-6.346-2.991 0-5.243 2.725-5.243 6.346 0 5.74 4.908 8.215 8.725 4.398Zm10.673-4.2v-9.717h7.139c6.081 0 7.374.235 8.726 1.586 2.352 2.353 2.206 8.184-.252 10.038l-1.838 1.387 1.815 3.248 1.816 3.248-2.811-.328c-2.248-.263-3.061-.852-4.056-2.938-.887-1.861-1.895-2.705-3.512-2.942-2.178-.32-2.268-.205-2.268 2.901 0 3.064-.124 3.234-2.379 3.234h-2.38Zm12.533-1.15c2.613-2.614.064-5.394-4.945-5.394-2.771 0-2.829.064-2.829 3.173v3.173h3.411c1.876 0 3.839-.429 4.363-.952Zm-57.748.952v-9.519h7.083c5.381 0 7.382.299 8.329 1.246 1.386 1.386 1.695 6.315.444 7.088-.507.314-.361 1.123.397 2.206 1.65 2.356 1.5 5.023-.388 6.911-1.351 1.351-2.644 1.586-8.726 1.586h-7.139Zm12.546 4.164c-.234-2.035-.531-2.198-4.415-2.421l-4.165-.24v2.421c0 2.41.022 2.421 4.416 2.421 4.349 0 4.412-.033 4.164-2.181Zm-.251-8.131c0-1.833-.315-2.001-4.164-2.223l-4.165-.239v4.925l4.165-.24c3.849-.221 4.164-.39 4.164-2.223Zm55.13 12.494c-.001-.546.95-4.845 2.113-9.554l2.114-8.561 4.759.232 4.758.233 2.244 8.329c2.794 10.374 2.794 10.48.076 10.167-1.562-.18-2.254-.758-2.435-2.036-.227-1.596-.701-1.785-4.475-1.785-3.842 0-4.267.179-4.72 1.983-.363 1.449-1.028 1.983-2.466 1.983-1.082 0-1.968-.446-1.968-.991Zm12.391-7.536c-.224-.763-.645-2.727-.935-4.363-.432-2.441-.86-2.974-2.386-2.974-1.53 0-1.947.526-2.36 2.974-.276 1.636-.673 3.6-.883 4.363-.323 1.177.178 1.388 3.296 1.388 3.128 0 3.615-.207 3.268-1.388Z"/></svg>

<svg
    xmlns="http://www.w3.org/2000/svg"
    viewBox="0 0 192 192"
    id="vector">
    <path
        id="path"
        d="M 68.15 170.428 C 67.002 169.364 65.935 168.56 65.779 168.644 C 65.623 168.727 65.594 168.637 65.715 168.443 C 65.836 168.249 58.178 160.305 48.698 150.789 L 31.461 133.487 L 34.971 129.91 L 38.481 126.334 L 49.473 137.252 C 63.376 151.063 68.963 158.785 72.684 169.333 C 73.716 172.256 73.691 172.365 71.996 172.365 C 71.029 172.365 69.299 171.493 68.15 170.428 Z M 46.446 124.641 L 41.086 118.96 L 32.174 123.396 L 23.261 127.833 L 22.443 126.036 C 21.708 124.424 21.901 124.14 24.324 123.264 L 27.023 122.288 L 27.023 87.561 L 21.669 87.326 C 16.804 87.113 16.291 86.928 16.061 85.307 C 15.814 83.568 15.995 83.522 23.002 83.522 L 30.196 83.522 L 30.196 101.766 C 30.196 111.801 30.367 120.011 30.575 120.011 C 30.784 120.011 32.934 119.04 35.353 117.854 C 38.587 116.267 39.618 115.375 39.248 114.482 C 36.947 108.937 36.356 104.174 35.97 88.083 L 35.557 70.83 L 26.615 70.83 C 19.174 70.83 17.593 70.618 17.19 69.569 C 16.924 68.875 16.907 67.982 17.152 67.586 C 17.401 67.182 26.637 66.864 38.083 66.864 L 58.568 66.864 L 59.046 65.079 C 59.798 62.274 59.657 61.962 57.891 62.523 C 55.294 63.347 51.092 62.231 48.464 60.019 L 46.061 57.997 L 43.658 60.019 C 39.331 63.66 32.846 63.502 28.717 59.654 L 26.979 58.035 L 24.56 60.07 C 22.151 62.097 19.091 62.802 19.091 61.33 C 19.091 60.905 20.36 59.402 21.911 57.99 C 23.975 56.112 24.618 54.971 24.308 53.736 C 23.753 51.524 25.532 49.162 27.472 49.536 C 28.658 49.765 29.025 50.535 29.087 52.931 C 29.261 59.576 37.718 62.023 42.537 56.824 C 43.953 55.296 44.244 54.431 43.69 53.396 C 42.706 51.557 44.472 49.142 46.51 49.539 C 47.587 49.749 48.073 50.543 48.141 52.204 C 48.283 55.697 49.161 57.267 51.71 58.585 L 53.993 59.765 L 53.993 54.84 C 53.993 49.285 56.058 44.053 59.237 41.553 C 61.033 40.14 61.113 39.778 60.366 36.445 C 59.924 34.472 59.793 31.174 60.075 29.116 L 60.588 25.374 L 57.215 27.27 C 55.359 28.313 52.058 31.435 49.878 34.209 C 47.698 36.983 44.379 40.2 42.503 41.358 C 39.46 43.235 39.036 43.868 38.587 47.199 C 38.056 51.128 37.445 52.047 35.967 51.134 C 35.38 50.771 35.222 48.929 35.507 45.779 C 35.935 41.059 36.002 40.947 39.443 39.121 C 42.776 37.353 44.008 36.146 49.733 29.033 L 52.216 25.95 L 50.27 23.688 C 48.552 21.691 48.462 21.288 49.498 20.252 C 50.534 19.216 50.936 19.373 52.927 21.593 L 55.183 24.108 L 58.654 22.879 C 61.584 21.841 66.693 21.185 66.682 21.848 C 66.68 21.957 65.788 23.802 64.699 25.948 C 62.369 30.54 62.237 33.572 64.177 37.892 L 65.593 41.046 L 63.238 42.651 C 59.113 45.462 57.666 48.179 57.309 53.784 C 57.029 58.188 57.172 58.932 58.302 58.932 C 60.423 58.932 63.558 55.03 63.054 53.018 C 62.543 50.983 64.338 49.151 66.449 49.554 C 68.281 49.903 68.748 53.119 67.215 54.832 C 66.564 55.56 64.709 59.358 63.094 63.272 C 60.178 70.337 60.159 70.456 60.495 79.533 C 60.788 87.431 61.139 89.352 63.07 93.624 C 66.501 101.218 67.086 101.263 68.635 94.058 C 71.163 82.303 70.877 82.729 76.25 82.729 C 80.713 82.729 80.956 82.831 81.416 84.91 C 81.967 87.396 84.779 98.287 85.411 100.378 C 85.745 101.485 85.347 101.766 83.452 101.766 C 81.59 101.766 81.019 101.379 80.82 99.982 C 80.599 98.426 80.03 98.166 76.398 97.957 C 72.559 97.736 72.169 97.877 71.46 99.742 C 71.037 100.855 70.072 101.766 69.316 101.766 C 68.317 101.766 68.85 102.692 71.27 105.158 L 74.598 108.549 L 63.691 119.436 C 57.691 125.424 52.563 130.323 52.294 130.323 C 52.026 130.323 49.394 127.766 46.446 124.641 Z M 61.309 117.036 L 69.787 108.509 L 66.621 105.138 L 63.455 101.766 L 50.027 101.766 L 50.027 82.729 L 53.993 82.729 L 53.993 98.593 L 57.648 98.593 C 60.82 98.593 61.226 98.41 60.722 97.205 C 58.145 91.044 57.166 85.949 57.166 78.692 L 57.166 70.83 L 38.71 70.83 L 39.15 87.29 C 39.608 104.39 40.287 108.619 43.617 115.132 C 45.302 118.428 51.257 125.564 52.323 125.564 C 52.602 125.564 56.646 121.726 61.309 117.036 Z M 79.372 93.239 C 79.361 89.778 77.687 85.902 76.204 85.902 C 75.133 85.902 74.451 86.768 73.866 88.876 C 72.427 94.059 72.657 94.627 76.204 94.627 C 78.699 94.627 79.376 94.33 79.372 93.239 Z M 116.755 101.203 C 111.287 98.509 110.28 89.535 114.924 84.891 C 119.243 80.572 127.17 81.771 129.712 87.128 C 134.25 96.691 125.934 105.725 116.755 101.203 Z M 125.024 96.646 C 126.251 95.419 126.971 93.793 126.971 92.248 C 126.971 89.44 123.944 85.902 121.542 85.902 C 118.551 85.902 116.299 88.627 116.299 92.248 C 116.299 97.988 121.207 100.463 125.024 96.646 Z M 135.697 92.446 L 135.697 82.729 L 142.836 82.729 C 148.917 82.729 150.21 82.964 151.562 84.315 C 153.914 86.668 153.768 92.499 151.31 94.353 L 149.472 95.74 L 151.287 98.988 L 153.103 102.236 L 150.292 101.908 C 148.044 101.645 147.231 101.056 146.236 98.97 C 145.349 97.109 144.341 96.265 142.724 96.028 C 140.546 95.708 140.456 95.823 140.456 98.929 C 140.456 101.993 140.332 102.163 138.077 102.163 L 135.697 102.163 Z M 148.23 91.296 C 150.843 88.682 148.294 85.902 143.285 85.902 C 140.514 85.902 140.456 85.966 140.456 89.075 L 140.456 92.248 L 143.867 92.248 C 145.743 92.248 147.706 91.819 148.23 91.296 Z M 90.482 92.248 L 90.482 82.729 L 97.565 82.729 C 102.946 82.729 104.947 83.028 105.894 83.975 C 107.28 85.361 107.589 90.29 106.338 91.063 C 105.831 91.377 105.977 92.186 106.735 93.269 C 108.385 95.625 108.235 98.292 106.347 100.18 C 104.996 101.531 103.703 101.766 97.621 101.766 L 90.482 101.766 Z M 103.028 96.412 C 102.794 94.377 102.497 94.214 98.613 93.991 L 94.448 93.751 L 94.448 96.172 C 94.448 98.582 94.47 98.593 98.864 98.593 C 103.213 98.593 103.276 98.56 103.028 96.412 Z M 102.777 88.281 C 102.777 86.448 102.462 86.28 98.613 86.058 L 94.448 85.819 L 94.448 90.744 L 98.613 90.504 C 102.462 90.283 102.777 90.114 102.777 88.281 Z M 157.907 100.775 C 157.906 100.229 158.857 95.93 160.02 91.221 L 162.134 82.66 L 166.893 82.892 L 171.651 83.125 L 173.895 91.454 C 176.689 101.828 176.689 101.934 173.971 101.621 C 172.409 101.441 171.717 100.863 171.536 99.585 C 171.309 97.989 170.835 97.8 167.061 97.8 C 163.219 97.8 162.794 97.979 162.341 99.783 C 161.978 101.232 161.313 101.766 159.875 101.766 C 158.793 101.766 157.907 101.32 157.907 100.775 Z M 170.298 93.239 C 170.074 92.476 169.653 90.512 169.363 88.876 C 168.931 86.435 168.503 85.902 166.977 85.902 C 165.447 85.902 165.03 86.428 164.617 88.876 C 164.341 90.512 163.944 92.476 163.734 93.239 C 163.411 94.416 163.912 94.627 167.03 94.627 C 170.158 94.627 170.645 94.42 170.298 93.239 Z"
        fill="#000000"
        stroke-width="12"/>
</svg>
